_includes/sets/releases.svg

<svg xmlns="http://www.w3.org/2000/svg" width="16" height="13" viewBox="0 0 16 13">
  <g fill="none" fill-rule="evenodd" transform="translate(-4 -6)">
    <rect width="24" height="24"/>
    <path class="main" fill="#0D0D17" d="M5,6 L19,6 C19.5522847,6 20,6.44771525 20,7 L20,8 C20,8.55228475 19.5522847,9 19,9 L5,9 C4.44771525,9 4,8.55228475 4,8 L4,7 C4,6.44771525 4.44771525,6 5,6 Z M5,11 L14.8,11 C15.3522847,11 15.8,11.4477153 15.8,12 L15.8,13 C15.8,13.5522847 15.3522847,14 14.8,14 L5,14 C4.44771525,14 4,13.5522847 4,13 L4,12 C4,11.4477153 4.44771525,11 5,11 Z M5,16 L17.6,16 C18.1522847,16 18.6,16.4477153 18.6,17 L18.6,18 C18.6,18.5522847 18.1522847,19 17.6,19 L5,19 C4.44771525,19 4,18.5522847 4,18 L4,17 C4,16.4477153 4.44771525,16 5,16 Z"/>
  </g>
</svg>

<svg width="24" height="24" xmlns="http://www.w3.org/2000/svg"><path d="M5 6h14a1 1 0 0 1 1 1v1a1 1 0 0 1-1 1H5a1 1 0 0 1-1-1V7a1 1 0 0 1 1-1zm0 5h9.8a1 1 0 0 1 1 1v1a1 1 0 0 1-1 1H5a1 1 0 0 1-1-1v-1a1 1 0 0 1 1-1zm0 5h12.6a1 1 0 0 1 1 1v1a1 1 0 0 1-1 1H5a1 1 0 0 1-1-1v-1a1 1 0 0 1 1-1z" class="main" fill="#0D0D17" fill-rule="evenodd"/></svg>
